X:1
T:Title
%%score { ( 1 4 ) | ( 2 3 ) }
L:1/8
M:6/8
K:Ab
V:1 treble nm="Grand Piano"
V:4 treble 
V:2 bass 
V:3 bass 
V:1
 z3 z2[Q:1/4=90] [CE] | [Ec]>[Ec][Ec] [EA][EB][Ec] | [FB][FA][DF] [CE]3 | %3
 [CA]>[CA][CA] [CA]2 [CA] | [=Dc][DB][DA] [EB]3 | [Ec]>[Ec][Ec] [EA][EB][Ec] | %6
 [Fd]>[Fd][Fd] [DF]AB | c>cc c2 B | [CA]6 | B>BB A2 B | [Ec]3 A3 | [Ec]>[Ec][Ec] [=Dc]2 [DB] | %12
 B3- B2 E/E/ | [Ec][Ec][Ec] AB[Ec] | [Fd]>[Fd][Fd] [DF]AB | c>cc c2 B |[M:5/8] [CA]-[CA]- [CA]3 |] %17
V:2
 z3 z2 [A,,A,] | [A,,A,]>[A,,A,][A,,A,] [C,A,][B,,G,][A,,A,] | [D,A,][D,D][D,A,] [A,,A,]3 | %3
 [A,,A,]>[A,,A,][A,,A,] [A,,A,]2 [A,,A,] | [B,,A,][B,,A,][B,,A,] [E,G,]3 | %5
 [A,,A,]>[A,,A,][A,,A,] [C,A,][B,,G,][A,,A,] | [D,A,]>[D,A,][D,A,] z[K:treble] F=E | %7
 [E,A,E]>[E,A,E][E,A,E] [E,G,E]2 [E,G,D] | [A,,A,]6 | [E,G,E]>[E,G,E][E,G,E] [E,F,E]2 [E,G,E] | %10
 A,3 [E,C]3 | [A,,A,]>[A,,A,][A,,A,] [B,,A,]2 [B,,A,] | [E,G,E]3- [E,G,E]2 [E,G,D]/[E,G,D]/ | %13
 [A,,A,][A,,A,][A,,A,] [C,A,][B,,G,][A,,A,] | [D,A,]>[D,A,][D,A,] z[K:treble] F=E | %15
 [E,A,E]>[E,A,E][E,A,E] [E,G,E]2 [E,G,D] |[M:5/8] [A,,A,]-[A,,A,]- [A,,A,]3 |] %17
V:3
 x6 | x6 | x6 | x6 | x6 | x6 | z3 [D,A,]3[K:treble] | x6 | x6 | x6 | A,,6 | x6 | x6 | x6 | %14
 z3 [D,A,]3[K:treble] | x6 |[M:5/8] x5 |] %17
V:4
 x6 | x6 | x6 | x6 | x6 | x6 | x6 | x6 | x6 | x6 | x6 | x6 | x6 | z3 .E3 | x6 | x6 |[M:5/8] x5 |] %17

